X:602
T:Brian O'Lynn 1
T:The cockled old man
R:Jig
O:Ireland
B:O'Neill's 881
B:Roche 1 n127
S:My arrangement from various sources
Z:Transcription, arrangement, chords:Mike Long
M:6/8
L:1/8
K:G
B|\
"Am"cAd cAG|"Em"~E2E GAB|"Am"cAd cAG|"Em"EAA "Am"A2B|\
cAd cAG|"Em"~E2E GAB|"C"cde "Dm"=fed|"Am"cAA A2:|
|:f|\
"C"~g2g ged|"F"cAB c2d|"Am"eaa age|"G"ed^c def|\
"Em"~g2g ged|"Am"cAB cde|"Dm"=fed "Am"cAG|"Em"EAA "Am"A2:|
